!!!!SEGMENT: pl-wtm--r-604-m_moniuszko-stanislaw--figle-szatana-scena-6.krn
!!!cenid: 18xx:2986
!!!COM: Moniuszko, Stanisław
!!!COM-rismID: pe30008351
!!!CDT: 1819/05/05-1872/06/04
!!!CNT: Polish
!!!OPR: Figle szatana
!!!OTL: Scena 6
!!!PDT: 1870
!!!AGN: Secular
!!!YEC: Copyright 2022 Narodowy Instytut Fryderyka Chopina (https://polishscores.org)
!!!YEM: License CC-BY-4.0 (https://creativecommons.org/licenses/by/4.0)
!!!SMS-siglum: PL-Wtm
!!!SMS-shelfmark: R 604/M
!!!SMS-shelfwork: M
!!!SMS-variant:
!!!SMS-altvar:
!!!NIFC-rismSourceID: 1001095487
!!!NIFC-rismChildID: 1001095487
!!!NIFC-islandoraID: pl-wtm:50620
!!!URL-pdf-islandora: https://repozytorium.nifc.pl/islandora/object/pl-wtm%3A50620/datastream/PDF/view
!!!URL-scan: https://polish.musicsources.pl/pl/lokalizacje/galeria/rekopisy/7982/1 @EN{Scan on Polish Music Sources Website} @PL{Skany w portalu Dziedzictwo Muzyki Polskiej w otwartym dostępie}
!!!IIIF:
!!!ONB-nifc:
!!!AIN: 2 piano 1 violn
!!!key:
**kern	**kern	**dynam	**kern	**dynam
*part3	*part2	*	*part1	*
*staff3	*staff2	*	*staff1	*
*Ipiano	*Ipiano	*	*Ivioln	*
*I"[Piano]	*I"[Piano]	*	*I"[Violin]	*
*clefF4	*clefG2	*	*clefG2	*
*k[f#c#g#d#]	*k[f#c#g#d#]	*	*k[f#c#g#d#]	*
*E:	*E:	*	*E:	*
*M2/4	*M2/4	*	*M2/4	*
=1	=1	=1	=1	=1
*^	*	*	*	*
*2\right	*2\right	*2\right	*	*	*
!	!	!	!	!LO:TX:i:a:t=Scena 6ta. L'entrèe des dames.	!
!	!	!	!	!LO:TX:i:a:t=po Pas de deux&colon;	!
!	!	!	!	!LO:TX:i:a:t=Allegretto.	!
!	!	!	!	!LO:TX:t=P:problem=all\right&colon; global	!
!	!	!	!LO:DY:b:rj	!LO:TX:t=P:problem=znaki przykluczowe&colon; f#cc#g#dd#	!
4.E/	2EE\	8g#L 8e'</	p	2r	.
.	.	8B'</J	.	.	.
.	.	4b 4g# 4e^</	.	.	.
8BB/	.	.	.	.	.
=2	=2	=2	=2	=2	=2
*rep	*rep	*rep	*	*	*
4.E/	2EE\	8g#L 8e'</	.	2r	.
.	.	8B'</J	.	.	.
.	.	4b 4g# 4e^</	.	.	.
8BB/	.	.	.	.	.
*Xrep	*Xrep	*Xrep	*	*	*
=3	=3	=3	=3	=3	=3
!	!	!	!	!LO:TX:i:b:t=legitiſsimo.	!LO:DY:b:t=p.:rj
8E'</L	2EE\	16g#'</LL	.	16b'>\LL	p
.	.	16g#'</	.	16b'>\	.
8BB'</	.	16g#'</	.	16b'>\	.
.	.	16g#'</JJ	.	16b'>\JJ	.
8C#'</	.	8b'</L	.	8gg#'>\L	.
8D#'</J	.	8a'</J	.	8ff#'>\J	.
=4	=4	=4	=4	=4	=4
*	*	*tremolo	*	*tremolo	*
!	!	!LO:TX:a:t=P:problem=4 kropki pod nutą	!	!LO:TX:a:t=P:problem=4 kropki nad nutą	!
8E'</L	2EE\	16g#'</LL	.	16ee'>\LL	.
.	.	16g#'</	.	16ee'>\	.
8G#'</	.	16g#'</	.	16ee'>\	.
.	.	16g#'</JJ	.	16ee'>\JJ	.
*	*	*Xtremolo	*	*Xtremolo	*
8B'</	.	8g#/L	.	8b'>\L	.
8A#X'</J	.	8gnJ 8e/	.	8cc#'>\J	.
=5	=5	=5	=5	=5	=5
*	*	*tremolo	*	*	*
!LO:TX:a:t=P:problem=akcent bezpośrednio pod 8An	!	!LO:TX:a:t=P:problem=4 kropki pod nutą	!	!	!
8An^</L	2BB\	16f#'</LL	.	(>16dd#\LL	.
.	.	16f#'</	.	16ee\)	.
8F#/	.	16f#'</	.	16dd#'>\	.
.	.	16f#'</JJ	.	16cc#\JJ	.
*	*	*Xtremolo	*	*	*
8B/	.	8f#'</L	.	8dd#'>\L	.
8G#/J	.	8e'</J	.	8ee\J	.
=6	=6	=6	=6	=6	=6
8A/L	4BB\	8d#'</L	.	8ff#'>\L	.
8F#/	.	8f#'</J	.	8dd#'>\J	.
8B/	4rBB	4b/	.	4b\	.
8BB/J	.	.	.	.	.
=7	=7	=7	=7	=7	=7
*	*	*tremolo	*	*tremolo	*
!	!	!LO:TX:a:t=P:problem=3 kropki pod nutą	!	!LO:TX:a:t=P:problem=4 kropki nad nutą	!
8E/L	4EE\	16g#'</LL	.	16b'>\LL	.
.	.	16g#'</	.	16b'>\	.
8G#/	.	16g#'</	.	16b'>\	.
.	.	16g#/JJ	.	16b'>\JJ	.
*	*	*Xtremolo	*	*Xtremolo	*
8B/	4rBB	8b/L	.	8gg#'>\L	.
8B#X/J	.	8an/J	.	8ff#'>\J	.
=8	=8	=8	=8	=8	=8
*	*	*tremolo	*	*	*
!LO:TX:a:t=P:problem=akcent bezpośrednio pod 8d#	!	!LO:TX:a:t=P:problem=3 kropki pod nutą	!	!	!
8d#^</L	4C#\	16g#'</LL	.	16ff#'>\LL	.
.	.	16g#'</	.	16ff#'>\	.
8c#/	.	16g#'</	.	16ee'>\	.
.	.	16g#/JJ	.	16ee'>\JJ	.
*	*	*Xtremolo	*	*	*
8G#/	4rBB	8f#/L	.	8b\L	.
8Gn/J	.	8bJ 8e/	.	8cc#\J	.
=9	=9	=9	=9	=9	=9
8F#/L	8F#\	8bL 8d#/	.	16dd#'>\LL	.
.	.	.	.	16ee'>\	.
8d#/	8r	8b/	.	16ee#X'>\	.
.	.	.	.	16ff#'>\JJ	.
8e/	8F#\	8b/	.	16ff##X'>\LL	.
.	.	.	.	16gg#'>\	.
8c#/J	8r	8eeJ 8f#/	.	16aan'>\	.
.	.	.	.	16aa#X'>\JJ	.
!!LO:LB:g=original
=10	=10	=10	=10	=10	=10
8B/L	2BB\	8dd#L 8f#'</	.	16bb\LL	.
.	.	.	.	16ff#\	.
8F#/	.	8f#J 8d#'</	.	16dd#\	.
.	.	.	.	16ff#\JJ	.
8B/	.	4b 4d#/	.	4b\	.
8F#/J	.	.	.	.	.
*v	*v	*	*	*	*
=11	=11	=11	=11	=11
8BB 8BBB/	16aLL 16f#'</	.	16ff#'>\LL	.
.	16a 16f#'</	.	16ff#'>\	.
8F#\L	16a 16f#'</	.	16ff#'>\	.
.	16aJJ 16f#'</	.	16ee#X'>\JJ	.
8c#^>\	8aL 8f#/	.	8een\L	.
8B\J	8aJ 8f#/	.	8dd#\J	.
=12	=12	=12	=12	=12
*	*tremolo	*	*	*
!LO:TX:t=P:problem=mixed beam	!LO:TX:a:t=P:problem=4 kropki pod nutą	!	!	!
8B\L	16f#LL 16d#'</	.	16cc#'>\LL	.
.	16f# 16d#'</	.	16cc#'>\	.
8F#\	16f# 16d#'</	.	16cc#'>\	.
.	16f#JJ 16d#'</	.	16ccn'>\JJ	.
*	*Xtremolo	*	*	*
8BB/	8f#L 8d#/	.	8b/L	.
8B\J	8f#J 8d#/	.	8a/J	.
=13	=13	=13	=13	=13
*^	*	*	*	*
8E\L	8EE\	16e'</LL	.	16g#'</LL	.
.	.	16e'</	.	16g#'</	.
8e^>\	8rFF	16e'</	.	16g#'</	.
.	.	16f#'</JJ	.	16a'</JJ	.
8d#\	4rFF	8f##X/L	.	8a#X'</L	.
8c#\J	.	8g#/J	.	8b'</J	.
*v	*v	*	*	*	*
=14	=14	=14	=14	=14
8B\L	8b'</L	.	8gg#'>\L	.
8A#X\	8e'</J	.	8ee'>\J	.
8c#\	4g#^</	.	4b^>\	.
8B\J	.	.	.	.
=15	=15	=15	=15	=15
*	*tremolo	*	*	*
!	!LO:TX:B:a:t==de:color=red	!	!LO:TX:B:a:t=vi=tro:color=red	!
!	!LO:TX:a:t=P:problem=4 kropki pod nutą	!	!	!
8BB 8BBB/	16aLL 16f#'</	.	16ff#'>\LL	.
.	16a 16f#'</	.	16ff#'>\	.
8F#\L	16a 16f#'</	.	16ff#'>\	.
.	16aJJ 16f#'</	.	16ee#X'>\JJ	.
*	*Xtremolo	*	*	*
8c#^>\	8aL 8f#'</	.	8een'>\L	.
8B\J	8aJ 8f#'</	.	8dd#'>\J	.
=16	=16	=16	=16	=16
*	*tremolo	*	*	*
!	!LO:TX:a:t=P:problem=4 kropki pod nutą	!	!	!
8e^>\L	16aLL 16f#'</	.	16cc#'>\LL	.
.	16a 16f#'</	.	16cc#'>\	.
8d#\	16a 16f#'</	.	16cc#'>\	.
.	16aJJ 16f#'</	.	16ccn'>\JJ	.
*	*Xtremolo	*	*	*
8f#^>\	8a'</L	.	8b'>\L	.
8B\J	8f#J 8d#'</	.	8a'>\J	.
=17	=17	=17	=17	=17
*^	*	*	*	*
!LO:N:vis=2	!	!	!LO:HP:b	!	!LO:HP:b
8E/L	2E\	16e'</LL	<	16g#'</LL	<
.	.	16e'</	.	16g#'</	.
8B/J	.	16e'</	.	16g#'</	.
.	.	16f#'</JJ	.	16a'</JJ	.
8e/L	.	8f##X'</L	.	8a#X'</L	.
!	!	!LO:TX:B:a:t==re:color=red	!	!	!
8B/J	.	8g#'</J	[	8b'</J	[
*v	*v	*	*	*	*
=18	=18	=18	=18	=18
!	!	!LO:DY:b:rj	!	!LO:DY:b
(>4dn (<4Dn^>\	8bL 8g#^</	mf	8gg#'>\L	mf
.	8bJ 8g#/	.	8ff#'>\J	.
8c#) 8C#\)	8r	.	4ee#X^>\	.
!	!	!LO:DY:b	!	!
8r	8b 8g#/	p	.	.
=19	=19	=19	=19	=19
!	!	!LO:DY:b	!	!LO:DY:b
8F#'>\L	16b'</LL	pp	16gg#'>\LL	pp
.	16a#X'</	.	16ff#'>\	.
8c#'>\J	16b'</	.	16gg#'>\	.
.	16a#'</JJ	.	16ff#'>\JJ	.
!LO:TX:t=P:problem=mixed beam	!	!	!	!
8BB'</L	8an'</L	.	8cc#'>\L	.
8B'>\J	8a'</J	.	8dd#'>\J	.
=20	=20	=20	=20	=20
.	.	.	8qff#/	.
8E'>\L	(<16g#/LL	.	(>16ee\LL	.
.	16f##X/)	.	16dd#\	.
8B'>\J	16g#'</	.	16ee\)	.
.	16b'</JJ	.	16b'>\JJ	.
!LO:TX:t=P:problem=mixed beam	!	!	!	!
8C#'</L	8cc#'</L	.	8aa'>\L	.
8c#'>\J	8b'</J	.	8gg#'>\J	.
!!LO:LB:g=original
=21	=21	=21	=21	=21
8F#\L	16b'</LL	.	16gg#'>\LL	.
.	16a#X'</	.	16ff#'>\	.
8c#\J	16b'</	.	16gg#'>\	.
.	16a#'</JJ	.	16ff#'>\JJ	.
!LO:TX:t=P:problem=mixed beam	!	!	!	!
8BB/L	8an'</L	.	8cc#'>\L	.
8B\J	8a'</J	.	8dd#'>\J	.
=22	=22	=22	=22	=22
!	!	!LO:HP:b	!	!LO:HP:b
.	8qa/	<	8qff#/	<
8E\L	(<16g#/LL	.	(>16ee\LL	.
.	16f##X/	.	16dd#\	.
8B\J	16g#/)	.	16ee\)	.
.	16b'</JJ	[	16gg#\JJ	[
8E\	8eeL 8e'</	.	8ccc#'>\L	.
8r	8dd#J 8cc# 8d#/	.	8bb'>\J	.
=23	=23	=23	=23	=23
!	!	!LO:DY:b:t=forte:rj	!	!LO:DY:b:t=forte:rj
4A 4E 4AA^>\	4ee 4cc# 4a 4e^>/	f	4aa^>TT>\	f
.	.	.	16qqgg#/LL	.
.	.	.	16qqaa/JJ	.
8AL 8Dn 8AA\	8ff#L 8ddn 8a 8f#\	.	8ff#'>\L	.
8EJ 8AA\	8gg#J 8ee 8dd 8b 8g#\	.	8gg#J 8b 8e^>\	.
=24	=24	=24	=24	=24
(>4A 4AA\	8aa 8ee 8cc# 8a\	.	16aaLL 16cc# 16e^>\	.
!	!	!	!	!LO:DY:b
.	.	.	16gg#'>\	p
!	!	!LO:DY:b:rj	!	!
.	8cc# 8e 8c#/	p	16bb'>\	.
.	.	.	16aa'>\JJ	.
4G#\	8r	.	8ccc#\L	.
.	8b 8e#X 8c#/	.	8ee#X\J	.
=25	=25	=25	=25	=25
4F#\	8r	.	16ff#'>\LL	.
.	.	.	16ee#X'>\	.
.	8a 8f# 8c#/	.	16gg#'>\	.
.	.	.	16ff#'>\JJ	.
4BB/	8r	.	8aa'>\L	.
.	8a 8f# 8B/	.	8dd#X'>\J	.
=26||	=26||	=26||	=26||	=26||
*	*^	*	*	*
4.EE/)	(>16g#/LL	4B\	.	4ee^>TT>\	.
.	16e/	.	.	.	.
.	16f#/	.	.	.	.
.	16g#/JJ	.	.	.	.
.	.	.	.	16qqdd#X/LL	.
.	.	.	.	16qqee/JJ	.
.	16a/LL	4r	.	8cc#'>\L	.
.	16f#/J)	.	.	.	.
8BB/	8b/J	.	.	8dd#'>\J	.
=27	=27	=27	=27	=27	=27
*rep	*rep	*rep	*	*rep	*
4.EE/	(>16g#/LL	4B\	.	4ee^>TT>\	.
.	16e/	.	.	.	.
.	16f#/	.	.	.	.
.	16g#/JJ	.	.	.	.
.	.	.	.	16qqdd#X/LL	.
.	.	.	.	16qqee/JJ	.
.	16a/LL	4r	.	8cc#'>\L	.
.	16f#/J)	.	.	.	.
8BB/	8b/J	.	.	8dd#'>\J	.
*Xrep	*Xrep	*Xrep	*	*Xrep	*
*	*v	*v	*	*	*
=28	=28	=28	=28	=28
4E\	8g#/	.	16b\LL	.
.	.	.	16a#X\	.
.	(<16g#/LL	.	16b\	.
.	16e/JJ	.	16b#X\JJ	.
8r	16a/LL	.	8cc#\L	.
.	16f#/)	.	.	.
8B\	16b'</	.	8dd#\J	.
.	16a'</JJ	.	.	.
=29	=29	=29	=29	=29
8e\	8g#'</	.	8ee\	.
8r	8r	.	8r	.
!	!	!LO:DY:b:rj	!	!LO:DY:b:rj
8B 8BB\	8aa 8ff# 8dd# 8b\	f	8bb\	f
8r	8r	.	8r	.
=30	=30	=30	=30	=30
8E 8BB 8EE/	8gg# 8ee 8b\	.	8eee\	.
8r	8r	.	8r	.
4r	4r	.	4r;>	.
==	==	==	==	==
*-	*-	*-	*-	*-
!!!system-decoration: {(s1,s2,s3)}
!!!RDF**kern: > = above
!!!RDF**kern: < = below
!!!ENC: Marcin Jachim
!!!END: 2021-08-18
!!!ENC: Antoni Szymański
!!!END: 2021-09-26
